build/images/content/solution/icon_2.svg

<svg width="80" height="80" viewBox="0 0 80 80" fill="none" xmlns="http://www.w3.org/2000/svg">
<path fill-rule="evenodd" clip-rule="evenodd" d="M57 23H77V44H72.4448V27.7829H57V23Z" fill="#0034FF"/>
<path fill-rule="evenodd" clip-rule="evenodd" d="M75 29.0742L48.1397 55.6538C46.7253 57.0535 44.4321 57.0534 43.0177 55.6538L31.0704 43.8313C30.3632 43.1315 29.2166 43.1315 28.5093 43.8313L6.10661 66L3 62.9258L27.2288 38.9502C28.6433 37.5505 30.9365 37.5505 32.3509 38.9502L44.2982 50.7726C45.0054 51.4725 46.152 51.4725 46.8592 50.7726L71.8934 26L75 29.0742Z" fill="#0034FF"/>
<path d="M3 29.6306V26.3403H13.4308C13.5949 26.3403 13.7949 26.335 14.0308 26.3243C14.2769 26.303 14.5487 26.2498 14.8462 26.1646C15.6974 25.9197 16.3128 25.4778 16.6923 24.8389C17.0718 24.1894 17.2615 23.4333 17.2615 22.5708C17.2615 22.0491 17.1846 21.5273 17.0308 21.0056C16.8872 20.4731 16.6359 20.0046 16.2769 19.6C15.9282 19.1954 15.4513 18.9132 14.8462 18.7535C14.5795 18.6789 14.3077 18.6363 14.0308 18.6257C13.7641 18.615 13.5641 18.6097 13.4308 18.6097H7.63077V15H13.5846C13.6974 15 13.9179 15.0053 14.2462 15.016C14.5846 15.0266 14.959 15.0639 15.3692 15.1278C16.641 15.3301 17.6923 15.772 18.5231 16.4535C19.3641 17.135 19.9846 17.9975 20.3846 19.041C20.7949 20.0738 21 21.2132 21 22.459C21 24.365 20.5333 25.941 19.6 27.1868C18.6667 28.4326 17.2564 29.2046 15.3692 29.5028C14.959 29.556 14.5846 29.5933 14.2462 29.6146C13.9179 29.6252 13.6974 29.6306 13.5846 29.6306H3ZM3 34.8694V31.8507H16.1231V34.8694H3ZM5.2 38V15H8.90769V38H5.2Z" fill="#0034FF"/>
</svg>

<svg width="80" height="80" fill="none" xmlns="http://www.w3.org/2000/svg"><path fill-rule="evenodd" clip-rule="evenodd" d="M57 23h20v21h-4.555V27.783H57V23z" fill="#0034FF"/><path fill-rule="evenodd" clip-rule="evenodd" d="M75 29.074l-26.86 26.58a3.649 3.649 0 01-5.122 0L31.07 43.83c-.707-.7-1.853-.7-2.56 0L6.106 66 3 62.926 27.229 38.95a3.649 3.649 0 015.122 0l11.947 11.823c.707.7 1.854.7 2.561 0L71.893 26 75 29.074z" fill="#0034FF"/><path d="M3 29.63v-3.29h10.43c.165 0 .365-.005.6-.016.247-.021.519-.074.816-.16.851-.244 1.467-.686 1.846-1.325.38-.65.57-1.406.57-2.268 0-.522-.077-1.044-.231-1.565a3.435 3.435 0 00-.754-1.406c-.349-.405-.826-.687-1.43-.847a3.516 3.516 0 00-.816-.127 16.35 16.35 0 00-.6-.016h-5.8V15h5.954c.112 0 .333.005.661.016.339.01.713.048 1.123.112 1.272.202 2.323.644 3.154 1.325a6.054 6.054 0 011.862 2.588c.41 1.033.615 2.172.615 3.418 0 1.906-.467 3.482-1.4 4.728-.933 1.246-2.344 2.018-4.23 2.316a17.9 17.9 0 01-1.124.112c-.328.01-.549.016-.661.016H3zm0 5.24v-3.02h13.123v3.02H3zM5.2 38V15h3.708v23H5.2z" fill="#0034FF"/></svg>
